X:1
T:River City, 76.76
T:River City, 76.76
T:Charles C. Treat, 1888
T:Public Domain Courtesy of the Cyber Hymnal™
C:Charles C. Treat, 1888
Z:Public Domain
Z:Courtesy of the Cyber Hymnal™
%%score ( 1 2 ) 3
L:1/8
Q:1/4=110
M:4/4
K:G
V:1 treble 
V:2 treble 
V:3 bass 
V:1
 [DB]2 [DB]>[CA] [B,G]2 [B,D]2 | [CE]4 [EG]4 | [FA]2 [FA]>[GB] [Ac]2 [Fd]2 | [GB]6 z2 | %4
 [DB]2 [DB]>[CA] [B,G]2 [=FB]2 | [CA]4 [CE]4 | [Fc]2 [Fc]>[GB] [FA]2 ([FA][FB]) | G8 |] %8
V:2
 x8 | x8 | x8 | x8 | x8 | x8 | x8 | G8 |] %8
V:3
 [G,,G,]2 [G,,G,]>[G,,G,] [G,,G,]2 [G,,G,]2 | [C,G,]4 [C,G,]4 | [D,D]2 [D,D]>[D,D] [D,A,]2 [D,D]2 | %3
 [G,D]6 z2 | [G,,G,]2 [G,,G,]>[G,,G,] [G,,G,]2 [G,,G,]2 | [C,E,]4 [C,G,]4 | %6
 [D,A,]2 [D,A,]>[D,B,] [D,C]2 ([D,C][D,D]) | [G,B,]8 |] %8

